X:1
T:Caryl, LM
T:Caryl, LM
T:Peter Christian Lutkin, 1905
T:Public Domain Courtesy of the Cyber Hymnal™
C:Peter Christian Lutkin, 1905
Z:Public Domain
Z:Courtesy of the Cyber Hymnal™
%%score ( 1 2 ) ( 3 4 )
L:1/8
Q:1/4=100
M:4/4
K:C
V:1 treble 
V:2 treble 
V:3 bass 
V:4 bass 
V:1
 [EG][EG][EG] | [EG]2 [EG]2 [FG]3 [FA] | [DG]4 E2 [E^F][EG] | [EB]2 [EA]2 [EG]2 [^D^F]2 | %4
 E2 G2 [GA]2 [FB]2 | [Ec]2 [EB]2 A3 z B | [EG]2 [CE]2 [CF]2 [B,G]2 | [CE]2 C2 D3 z E | C4 z |] %9
V:2
 x3 | x8 | x4 E2 x2 | x8 | E2 G2 x4 | x4 E2 D2 x | x8 | x2 C2 C2 B,2 x | C4 x |] %9
V:3
 [C,G,][C,A,][C,B,] | [C,D]2 [C,C]2 [D,C]3 [D,C] | [G,,B,]4 [C,G,]2 [C,A,][B,,B,] | %3
 [A,,D]2 [A,,C]2 [B,,B,]2 [B,,A,]2 | [E,G,]2 [E,B,]2 [E,C]2 [D,D]2 | A,2 [G,B,]2 [F,C]2 [F,B,]2 x | %6
 [E,C]2 [E,G,]2 [D,A,]2 [G,,G,]2 | [C,G,]2 [E,,E,G,]2 [F,,F,A,]2 [G,,G,]2 x | [C,E,]4 z |] %9
V:4
 x3 | x8 | x8 | x8 | x8 | A,2 x7 | x8 | x9 | x5 |] %9

